X:373
T:B373-  Phillida Flouts Me
Q:1/4=160
L:1/4
M:3/2
K:E phrygian
zE/F/|GGAGc2|zE/F/GGGE|zE/F/GGAG|c2zE/F/GG|\
GEzcde|e3/2d/ccdc|gezcde|e3/2d/ccdc|\
gezedc|B3/2A/GzzE/F/|GGfe/d/ez|zA/B/ccBA|\
GzzzE/F/G|GEzz|]

